X: 1221
T: Karcığar Sazsemâîsi
C: Kanunî Ömer Efendi
O: Turkey
F: http://compmusic.upf.edu/node/140
N: karcigar--sazsemaisi--aksaksemai----kanuni_omer_efendi
N: makam= karcigar
N: form= sazsemaisi
N: usul= aksaksemai = 10/8
M: 10/8
L: 1/16
K: C _2/4B _3/4e ^3/4f 
Q: 1/4=120
%%MIDI tuningsystem comma53
g4 f2gf gag2 f2_b2 a2g2  | f4 e2fe fgf2 e2d4z2  | 
w:  1. HANE  |   | 
fgf2 g2f2 e2d2 c2d4e2  | d2e2 f2a2 gfed c_1/4Bc4z2  | 
w:   |   | 
g4 f2c'2 _baag gfg4z2  | d4 e2ef eddc c_1/4Bc4z2  | 
w:      MÜLÂZİME  |   | 
g4 f2a2 gffe def4e2  | ded2 e2d2 c_1/4BBA G2A4z2  | 
w:   |   | 
d4 f2ef edde dc_1/4B4c2  | _1/4BcB2 A2Bc B2cd c2d4z2  | 
w:  2. HANE  |   | 
g4 a2g4f2 g2a_1/4b c'2_b2  | a2g2 f2ed c2dc _1/4B2c4z2  | \
w:   |   | 
g4 f2c'2 _baag gfg4z2  | 
w:      MÜLÂZİME  | 
d4 e2ef eddc c_1/4Bc4z2  | g4 f2a2 gffe def4e2  | 
w:   |   | 
ded2 e2d2 c_1/4BBA G2A4z2  | a4 a2a4_ba gag4f2  | 
w:   |  3. HANE  | 
g4 fga2 g2f2 g2a4z2  | a4 _1/4b2c'2 bagf e2fg f2a2  | 
w:   |   | 
g4 fea2 gfed c_1/4Bc4z2  | g4 f2c'2 _baag gfg4z2  | 
w:   |      MÜLÂZİME  | 
d4 e2ef eddc c_1/4Bc4z2  | g4 f2a2 gffe def4e2  | 
w:   |   | 
ded2 e2d2 c_1/4BBA G2A4z2  | z12  | c4d2f2e2d2  | \
w:   |  |  4. HANE  | 
c2_1/4B2d2c4z2  | 
w:   | 
a2g2f2e2d2c2  | d2c2_1/4B2c4z2  | c4d2f2e2d2  | \
w:   |   |  4. HANE  | 
c2_1/4B2d2c4z2  | 
w:   | 
a2g2f2e2d2c2  | d2c2_1/4B2c4z2  | g2f2a2g2f2e2  | \
w:   |   |   | 
f2e2g2f2e2d2  | 
w:   | 
e2d2f2e2d2c2  | d2e2f2g2a4  | g2f2a2g2f2e2  | \
w:   |   |   | 
f2e2g2f2e2d2  | 
w:   | 
e2d2f2e2d2c2  | d2c2_1/4B2c4z2  | z20  | \
w:   |   |  | 
g4 f2c'2 _baag gfg4z2  | 
w:      MÜLÂZİME  | 
d4 e2ef eddc c_1/4Bc4z2  | g4 f2a2 gffe def4e2  | 
w:   |   | 
ded2 e2d2 c_1/4BBA G2A4z2  | |


